src/theme/img/merivaroitus_ikoni.svg

<svg width="24" height="28" viewBox="0 0 24 28" xmlns="http://www.w3.org/2000/svg">
  <g fill="none" fill-rule="evenodd">
    <path d="M23 1v22h-7.4142136L12 26.5857864 8.41421356 23H1V1h22Z" stroke="#D72416" stroke-width="2" fill="#FFF"/>
    <path d="m10.2051631 20 .8980704-6.2666667H7.90522686c-.16063046 0-.27745262-.074074-.35046647-.2222222-.07301385-.1481481-.07301385-.2888889 0-.4222222L12.9212783 4h.8980704l-.8980704 6.2444444h3.1541983c.1606305 0 .2811033.0740741.3614186.2222223.0803152.1481481.0839659.2888889.0109521.4222222L11.1032335 20h-.8980704Z" fill="#D72416" fill-rule="nonzero"/>
  </g>
</svg>

<?xml version="1.0" encoding="UTF-8"?>
<svg width="24px" height="28px" viewBox="0 0 24 28" version="1.1" xmlns="http://www.w3.org/2000/svg" xmlns:xlink="http://www.w3.org/1999/xlink">
    <title>DC54D8CA-4211-4CC5-BBE4-F05E4F49E9F2</title>
    <g id="Digitaalinen-väyläkortti-(DVK)" stroke="none" stroke-width="1" fill="none" fill-rule="evenodd">
        <g id="dvk_land_merivaroitukset_popup" transform="translate(-1193.000000, -640.000000)">
            <g id="merivaroitus_polygon_esimerkki" transform="translate(1092.000000, 575.000000)">
                <g id="merivaroitus_ikoni" transform="translate(101.000000, 65.000000)">
                    <path d="M23,1 L23,23 L15.5857864,23 L12,26.5857864 L8.41421356,23 L1,23 L1,1 L23,1 Z" id="Combined-Shape" stroke="#D72416" stroke-width="2" fill="#FFFFFF"></path>
                    <path d="M10.2051631,20 L11.1032335,13.7333333 L7.90522686,13.7333333 C7.7445964,13.7333333 7.62777424,13.6592593 7.55476039,13.5111111 C7.48174654,13.362963 7.48174654,13.2222222 7.55476039,13.0888889 L12.9212783,4 L13.8193487,4 L12.9212783,10.2444444 L16.0754766,10.2444444 C16.2361071,10.2444444 16.3565799,10.3185185 16.4368952,10.4666667 C16.5172104,10.6148148 16.5208611,10.7555556 16.4478473,10.8888889 L11.1032335,20 L10.2051631,20 Z" id="Path" fill="#D72416" fill-rule="nonzero"></path>
                </g>
            </g>
        </g>
    </g>
</svg>
